X: 1
T:John Morris Rankin
R:reel
C:Dougie MacDonald
O:20th century Cape Breton
D:Staying in Tune, Dougie MacDonald, 1989
N:Bookings,Mechanicals etc.
N:..... Dougie MacDonald <dougie@cranfordpub.com>
N:More tunes and information <http://www.cranfordpub.com/dougie>
Z:This abc transcription is for personal use only,
Z:provided this notice remains attached.
Z:Used by permission of the composer
Z:Paul Stewart Cranford 
Q:333
L:1/8
M:C|
K:D
ag|fd d/d/d eAcA|B2 Bd BAFE|F2 AB defd|eAfA gece|!
fd d/d/d eAcA|B2 Bd BAFE|F2 AB defd|[1eABc d/d/d:|[2eABc d/d/d d||!
|:B|Addf efdf|afef dAAd|BcdB AFFD|EDEF E2 Ec|!
d2 df efdf|afef dAAd|BcdB AFFD|[1EDEF D2 D:|[2EDEF D2||!
|:ag|fd d/d/d eAcA|BG G/G/G AFFg|fd d/d/d eAcA|dAFD E2 Eg|!
fd d/d/d eAcA|BG G/G/G AFFE|F2 AB defd|eABc d/d/d:|]!
